flaticon/essential/home-1.svg

<svg xmlns="http://www.w3.org/2000/svg" width="32" height="32" viewBox="0 0 24 24">
    <path d="M 23.792969 10.953125 L 12 0 L 0.207031 10.953125 C 0.0390625 11.105469 0.03125 11.367188 0.183594 11.53125 C 0.339844 11.699219 0.601562 11.707031 0.765625 11.554688 L 2.132812 10.285156 L 2.132812 24 L 21.867188 24 L 21.867188 10.285156 L 23.234375 11.554688 C 23.3125 11.628906 23.414062 11.664062 23.511719 11.664062 C 23.625 11.664062 23.734375 11.621094 23.816406 11.53125 C 23.96875 11.367188 23.960938 11.105469 23.792969 10.953125 Z M 9.53125 23.175781 L 9.53125 16.597656 C 9.53125 15.238281 10.640625 14.132812 12 14.132812 C 13.359375 14.132812 14.46875 15.238281 14.46875 16.597656 L 14.46875 23.175781 Z M 21.046875 23.175781 L 15.289062 23.175781 L 15.289062 16.597656 C 15.289062 14.785156 13.8125 13.308594 12 13.308594 C 10.1875 13.308594 8.710938 14.785156 8.710938 16.597656 L 8.710938 23.175781 L 2.953125 23.175781 L 2.953125 9.523438 L 12 1.121094 L 21.046875 9.523438 Z M 21.046875 23.175781"/>
</svg>

<svg xmlns="http://www.w3.org/2000/svg" width="32" height="32" viewBox="0 0 24 24">
    <path d="M23.793 10.953L12 0 .207 10.953a.408.408 0 0 0-.023.578.413.413 0 0 0 .582.024l1.367-1.27V24h19.734V10.285l1.367 1.27c.078.074.18.11.278.11a.408.408 0 0 0 .281-.71zM9.531 23.176v-6.578A2.47 2.47 0 0 1 12 14.133a2.47 2.47 0 0 1 2.469 2.465v6.578zm11.516 0h-5.758v-6.578A3.294 3.294 0 0 0 12 13.308a3.294 3.294 0 0 0-3.29 3.29v6.578H2.954V9.523L12 1.121l9.047 8.402zm0 0"/>
</svg>
